oracle.svg

<svg version="1.1" id="Layer_1" xmlns:x="ns_extend;" xmlns:i="ns_ai;" xmlns:graph="ns_graphs;" xmlns="http://www.w3.org/2000/svg" xmlns:xlink="http://www.w3.org/1999/xlink" x="0px" y="0px" viewBox="0 0 461.6 60" style="enable-background:new 0 0 461.6 60;" xml:space="preserve">
 <style type="text/css">
  .st0{fill:#C74634;}
 </style>
 <metadata>
  <sfw xmlns="ns_sfw;">
   <slices>
   </slices>
   <sliceSourceBounds bottomLeftOrigin="true" height="60" width="461.6" x="-30.4" y="-230.5">
   </sliceSourceBounds>
  </sfw>
 </metadata>
 <path class="st0" d="M199.7,39h30.4l-16.1-26l-29.6,46.9h-13.4l36-56.3c2.7-3.9,8.1-4.8,11.9-2.1c0.8,0.6,1.5,1.2,2.1,2l36.1,56.4
	h-13.4l-6.3-10.5h-30.8L199.7,39 M339.5,49.5V0.6h-11.4v53.7c0,1.5,0.6,3,1.7,4c1.1,1.1,2.6,1.7,4.2,1.7h51.9l6.8-10.5L339.5,49.5
	 M150.6,40.7c11.1,0,20.1-9,20.1-20.1s-9-20.1-20.1-20.1h-49.9v59.4H112V11.1h37.8c5.3,0,9.6,4.3,9.6,9.6s-4.3,9.6-9.6,9.6h-32.2
	l34.1,29.6h16.6l-22.9-19.2H150.6 M30.5,59.9H65c16.4-0.4,29.3-14.1,28.9-30.4C93.5,13.7,80.7,1,65,0.6H30.5
	C14.1,0.2,0.4,13.1,0,29.5s12.5,30,28.9,30.4C29.4,60,29.9,60,30.5,59.9 M64.2,49.5h-33c-10.6-0.3-18.9-9.2-18.6-19.8
	c0.3-10.1,8.5-18.3,18.6-18.6h33c10.6-0.3,19.5,8,19.8,18.6c0.3,10.6-8,19.5-18.6,19.8C65,49.5,64.6,49.5,64.2,49.5 M280.9,59.9
	h35.2l6.7-10.4h-41.1c-10.6,0.3-19.5-8-19.8-18.6c-0.3-10.6,8-19.5,18.6-19.8c0.4,0,0.8,0,1.2,0h33.5l6.8-10.5h-41
	c-16.4-0.4-30,12.5-30.4,28.9c-0.4,16.4,12.5,30,28.9,30.4C279.9,60,280.4,60,280.9,59.9 M420.5,49.5c-8.6,0-16.2-5.7-18.5-14h48.8
	l6.7-10.5H402c2.3-8.3,9.9-14,18.5-14H454l6.7-10.5h-41C403.3,1,390.4,14.6,390.8,31c0.4,15.8,13.1,28.5,28.9,28.9h35.2l6.7-10.4
	L420.5,49.5">
 </path>
</svg>

<?xml version="1.0" encoding="UTF-8" standalone="no"?>
<!DOCTYPE svg PUBLIC "-//W3C//DTD SVG 1.1//EN" "http://www.w3.org/Graphics/SVG/1.1/DTD/svg11.dtd">
<svg width="100%" height="100%" viewBox="0 0 1800 200" version="1.1" xmlns="http://www.w3.org/2000/svg" xmlns:xlink="http://www.w3.org/1999/xlink" xml:space="preserve" xmlns:serif="http://www.serif.com/" style="fill-rule:evenodd;clip-rule:evenodd;stroke-linejoin:round;stroke-miterlimit:2;">
    <g transform="matrix(3.27944,0,0,3.27944,0.020643,0.118471)">
        <path d="M199.7,39L230.1,39L214,13L184.4,59.9L171,59.9L207,3.6C209.7,-0.3 215.1,-1.2 218.9,1.5C219.7,2.1 220.4,2.7 221,3.5L257.1,59.9L243.7,59.9L237.4,49.4L206.6,49.4L199.7,39M339.5,49.5L339.5,0.6L328.1,0.6L328.1,54.3C328.1,55.8 328.7,57.3 329.8,58.3C330.9,59.4 332.4,60 334,60L385.9,60L392.7,49.5L339.5,49.5M150.6,40.7C161.7,40.7 170.7,31.7 170.7,20.6C170.7,9.5 161.7,0.5 150.6,0.5L100.7,0.5L100.7,59.9L112,59.9L112,11.1L149.8,11.1C155.1,11.1 159.4,15.4 159.4,20.7C159.4,26 155.1,30.3 149.8,30.3L117.6,30.3L151.7,59.9L168.3,59.9L145.4,40.7L150.6,40.7M30.5,59.9L65,59.9C81.4,59.5 94.3,45.8 93.9,29.5C93.5,13.7 80.7,1 65,0.6L30.5,0.6C14.1,0.2 0.4,13.1 0,29.5C-0.4,45.9 12.5,59.5 28.9,59.9C29.4,60 29.9,60 30.5,59.9M64.2,49.5L31.2,49.5C20.6,49.2 12.3,40.3 12.6,29.7C12.9,19.6 21.1,11.4 31.2,11.1L64.2,11.1C74.8,10.8 83.7,19.1 84,29.7C84.3,40.3 76,49.2 65.4,49.5L64.2,49.5M280.9,59.9L316.1,59.9L322.8,49.5L281.7,49.5C271.1,49.8 262.2,41.5 261.9,30.9C261.6,20.3 269.9,11.4 280.5,11.1L315.2,11.1L322,0.6L281,0.6C264.6,0.2 251,13.1 250.6,29.5C250.2,45.9 263.1,59.5 279.5,59.9C279.9,60 280.4,60 280.9,59.9M420.5,49.5C411.9,49.5 404.3,43.8 402,35.5L450.8,35.5L457.5,25L402,25C404.3,16.7 411.9,11 420.5,11L454,11L460.7,0.5L419.7,0.5C403.3,1 390.4,14.6 390.8,31C391.2,46.8 403.9,59.5 419.7,59.9L454.9,59.9L461.6,49.5L420.5,49.5" style="fill:rgb(199,70,52);fill-rule:nonzero;"/>
    </g>
</svg>
